src/images/svg/symbols/jump-100-new.svg

<svg width="33" height="32" viewBox="0 0 33 32" fill="none" xmlns="http://www.w3.org/2000/svg">
<path fill-rule="evenodd" clip-rule="evenodd" d="M4.66602 12V14H2.66602V12H4.66602Z" fill="#FF444F"/>
<path fill-rule="evenodd" clip-rule="evenodd" d="M8.66602 12V16H6.66602V12H8.66602Z" fill="#FF444F"/>
<path fill-rule="evenodd" clip-rule="evenodd" d="M12.666 12V29H10.666V12H12.666Z" fill="#FF444F"/>
<path fill-rule="evenodd" clip-rule="evenodd" d="M16.666 26V32H14.666V26H16.666Z" fill="#FF444F"/>
<path fill-rule="evenodd" clip-rule="evenodd" d="M20.666 22V29H18.666V22H20.666Z" fill="#85ACB0"/>
<path fill-rule="evenodd" clip-rule="evenodd" d="M24.666 0V26H22.666V0H24.666Z" fill="#85ACB0"/>
<path fill-rule="evenodd" clip-rule="evenodd" d="M28.666 4V12H26.666V4H28.666Z" fill="#85ACB0"/>
<path fill-rule="evenodd" clip-rule="evenodd" d="M32.666 8V12H30.666V8H32.666Z" fill="#85ACB0"/>
<path d="M0.666016 2C0.666016 0.89543 1.56145 0 2.66602 0H17.666C18.7706 0 19.666 0.895431 19.666 2V8C19.666 9.10457 18.7706 10 17.666 10H2.66602C1.56145 10 0.666016 9.10457 0.666016 8V2Z" fill="#0E0E0E"/>
<path d="M3.722 8.00031V7.03231H5.226V3.28831H5.154L4.018 4.77631L3.25 4.17631L4.586 2.41631H6.426V7.03231H7.61V8.00031H3.722Z" fill="white"/>
<path d="M10.1669 8.09631C9.43621 8.09631 8.89488 7.84298 8.54288 7.33631C8.19088 6.82965 8.01488 6.12031 8.01488 5.20831C8.01488 4.29631 8.19088 3.58698 8.54288 3.08031C8.89488 2.57365 9.43621 2.32031 10.1669 2.32031C10.8975 2.32031 11.4389 2.57365 11.7909 3.08031C12.1429 3.58698 12.3189 4.29631 12.3189 5.20831C12.3189 6.12031 12.1429 6.82965 11.7909 7.33631C11.4389 7.84298 10.8975 8.09631 10.1669 8.09631ZM10.1669 7.08031C10.4869 7.08031 10.7082 6.96298 10.8309 6.72831C10.9535 6.49365 11.0149 6.16298 11.0149 5.73631V4.68031C11.0149 4.25365 10.9535 3.92298 10.8309 3.68831C10.7082 3.45365 10.4869 3.33631 10.1669 3.33631C9.84687 3.33631 9.62554 3.45365 9.50288 3.68831C9.38021 3.92298 9.31888 4.25365 9.31888 4.68031V5.73631C9.31888 6.16298 9.38021 6.49365 9.50288 6.72831C9.62554 6.96298 9.84687 7.08031 10.1669 7.08031Z" fill="white"/>
<path d="M14.9637 8.09631C14.2331 8.09631 13.6918 7.84298 13.3398 7.33631C12.9878 6.82965 12.8118 6.12031 12.8118 5.20831C12.8118 4.29631 12.9878 3.58698 13.3398 3.08031C13.6918 2.57365 14.2331 2.32031 14.9637 2.32031C15.6944 2.32031 16.2358 2.57365 16.5878 3.08031C16.9398 3.58698 17.1158 4.29631 17.1158 5.20831C17.1158 6.12031 16.9398 6.82965 16.5878 7.33631C16.2358 7.84298 15.6944 8.09631 14.9637 8.09631ZM14.9637 7.08031C15.2837 7.08031 15.5051 6.96298 15.6278 6.72831C15.7504 6.49365 15.8118 6.16298 15.8118 5.73631V4.68031C15.8118 4.25365 15.7504 3.92298 15.6278 3.68831C15.5051 3.45365 15.2837 3.33631 14.9637 3.33631C14.6438 3.33631 14.4224 3.45365 14.2998 3.68831C14.1771 3.92298 14.1158 4.25365 14.1158 4.68031V5.73631C14.1158 6.16298 14.1771 6.49365 14.2998 6.72831C14.4224 6.96298 14.6438 7.08031 14.9637 7.08031Z" fill="white"/>
</svg>

<svg width="33" height="32" fill="none" xmlns="http://www.w3.org/2000/svg"><path fill-rule="evenodd" clip-rule="evenodd" d="M4.666 12v2h-2v-2h2ZM8.666 12v4h-2v-4h2ZM12.666 12v17h-2V12h2ZM16.666 26v6h-2v-6h2Z" fill="#FF444F"/><path fill-rule="evenodd" clip-rule="evenodd" d="M20.666 22v7h-2v-7h2ZM24.666 0v26h-2V0h2ZM28.666 4v8h-2V4h2ZM32.666 8v4h-2V8h2Z" fill="#85ACB0"/><path d="M.666 2a2 2 0 0 1 2-2h15a2 2 0 0 1 2 2v6a2 2 0 0 1-2 2h-15a2 2 0 0 1-2-2V2Z" fill="#0E0E0E"/><path d="M3.722 8v-.968h1.504V3.288h-.072L4.018 4.776l-.768-.6 1.336-1.76h1.84v4.616H7.61V8H3.722ZM10.167 8.096c-.73 0-1.272-.253-1.624-.76-.352-.506-.528-1.216-.528-2.128 0-.912.176-1.621.528-2.128.352-.506.893-.76 1.624-.76.73 0 1.272.254 1.624.76.352.507.528 1.216.528 2.128 0 .912-.176 1.622-.528 2.128-.352.507-.893.76-1.624.76Zm0-1.016c.32 0 .541-.117.664-.352.123-.234.184-.565.184-.992V4.68c0-.426-.062-.757-.184-.992-.123-.234-.344-.352-.664-.352-.32 0-.541.118-.664.352-.123.235-.184.566-.184.992v1.056c0 .427.061.758.184.992.123.235.344.352.664.352ZM14.964 8.096c-.73 0-1.272-.253-1.624-.76-.352-.506-.528-1.216-.528-2.128 0-.912.176-1.621.528-2.128.352-.506.893-.76 1.624-.76.73 0 1.272.254 1.624.76.352.507.528 1.216.528 2.128 0 .912-.176 1.622-.528 2.128-.352.507-.894.76-1.624.76Zm0-1.016c.32 0 .541-.117.664-.352.122-.234.184-.565.184-.992V4.68c0-.426-.062-.757-.184-.992-.123-.234-.344-.352-.664-.352-.32 0-.542.118-.664.352-.123.235-.184.566-.184.992v1.056c0 .427.061.758.184.992.122.235.344.352.664.352Z" fill="#fff"/></svg>
